X:168
T:Dublin Jig, The
R:Jig
M:6/8
L:1/8
Q:116
K:A
|:e| "A" AAA cAc | ece "D" a2 f | "A" ecA ecA | "E7" BBB B2 e|!
| "A" AAA cAc | ece "D" a2 f | "A" ecA "E7" BAB |"A" cA"D"A "A" A2:||!
|: f | "A" ece "D" a2 f | "A" ece "D" a2 f | "A" ecA ecA | "E7" BBB B2 f|!
|1"A" ece "D" a2 f | "A" ece "D" a2 f | "A" ecA "E7" BAB| "A" cA"D"A "A"A2:|!
|2 "A" AAA "F#m" cAc | "A"ece  "D" a2 f | "A" ecA "E7" BAB |"A" cA"D"A "A" A2||
